source/assets/images/icons/insta.svg

<svg fill="none" height="50" viewBox="0 0 50 50" width="50" xmlns="http://www.w3.org/2000/svg"><g fill="#000"><path d="m9.89583 50h30.20837c5.4562 0 9.8958-4.4396 9.8958-9.8958v-30.20837c0-5.45625-4.4396-9.89583-9.8958-9.89583h-30.20837c-5.45625 0-9.89583 4.43958-9.89583 9.89583v30.20837c0 5.4562 4.43958 9.8958 9.89583 9.8958zm-6.77083-40.10417c0-3.73333 3.0375-6.77083 6.77083-6.77083h30.20837c3.7333 0 6.7708 3.0375 6.7708 6.77083v30.20837c0 3.7333-3.0375 6.7708-6.7708 6.7708h-30.20837c-3.73333 0-6.77083-3.0375-6.77083-6.7708z"/><path d="m25.0001 37.7709c7.0416 0 12.7708-5.7292 12.7708-12.7708 0-7.0417-5.7292-12.7709-12.7708-12.7709-7.0417 0-12.7709 5.7292-12.7709 12.7709 0 7.0416 5.7292 12.7708 12.7709 12.7708zm0-22.4167c5.3187 0 9.6458 4.3271 9.6458 9.6459 0 5.3187-4.3271 9.6458-9.6458 9.6458-5.3188 0-9.6459-4.3271-9.6459-9.6458 0-5.3188 4.3271-9.6459 9.6459-9.6459z"/><path d="m38.2457 15.3373c2.0542 0 3.6021-1.5416 3.6021-3.5854 0-2.13123-1.6292-3.5854-3.6001-3.5854-2.0541 0-3.6019 1.54167-3.6019 3.5854 0 2.1271 1.6208 3.5854 3.5999 3.5854zm.3687-3.9291c.6583.5812-.8438 1.2875-.8438.3458 0-.5625.7646-.4167.8438-.3458z"/></g></svg>

<svg width="50" height="50" viewBox="0 0 50 50" fill="none" xmlns="http://www.w3.org/2000/svg">
<path d="M9.89583 50H40.1042C45.5604 50 50 45.5604 50 40.1042V9.89583C50 4.43958 45.5604 0 40.1042 0H9.89583C4.43958 0 0 4.43958 0 9.89583V40.1042C0 45.5604 4.43958 50 9.89583 50ZM3.125 9.89583C3.125 6.1625 6.1625 3.125 9.89583 3.125H40.1042C43.8375 3.125 46.875 6.1625 46.875 9.89583V40.1042C46.875 43.8375 43.8375 46.875 40.1042 46.875H9.89583C6.1625 46.875 3.125 43.8375 3.125 40.1042V9.89583Z" fill="black"/>
<path d="M25.0001 37.7709C32.0417 37.7709 37.7709 32.0417 37.7709 25.0001C37.7709 17.9584 32.0417 12.2292 25.0001 12.2292C17.9584 12.2292 12.2292 17.9584 12.2292 25.0001C12.2292 32.0417 17.9584 37.7709 25.0001 37.7709ZM25.0001 15.3542C30.3188 15.3542 34.6459 19.6813 34.6459 25.0001C34.6459 30.3188 30.3188 34.6459 25.0001 34.6459C19.6813 34.6459 15.3542 30.3188 15.3542 25.0001C15.3542 19.6813 19.6813 15.3542 25.0001 15.3542Z" fill="black"/>
<path d="M38.2457 15.3373C40.2999 15.3373 41.8478 13.7957 41.8478 11.7519C41.8478 9.62067 40.2186 8.1665 38.2477 8.1665C36.1936 8.1665 34.6458 9.70817 34.6458 11.7519C34.6458 13.879 36.2666 15.3373 38.2457 15.3373ZM38.6144 11.4082C39.2727 11.9894 37.7706 12.6957 37.7706 11.754C37.7706 11.1915 38.5352 11.3373 38.6144 11.4082Z" fill="black"/>
</svg>
